._scraped/app.urodapter.com/img/icons/menu-icon-02.svg

<svg fill="none" height="33" viewBox="0 0 33 33" width="33" xmlns="http://www.w3.org/2000/svg" xmlns:xlink="http://www.w3.org/1999/xlink"><clipPath id="a"><path d="m0 0h33v33h-33z"/></clipPath><g clip-path="url(#a)"><path d="m10.7925 33-.3177-.0799c-.51947-.1348-1.04901-.3046-1.58359-.5143l-.30764-.1199-.29755-3.5903c-.47406-.2896-.92795-.6142-1.35158-.9688l-3.54035.829-.21181-.2547c-.34294-.4095-.67075-.8589-.97839-1.3383l-.17651-.2746 1.88616-3.076c-.21181-.5094-.38832-1.0387-.5144-1.573l-3.3537509-1.3882-.020173-.3246c-.0151296-.2746-.0252161-.5492-.0252161-.8239 0-.2746.0100865-.5493.0252161-.8239l.020173-.3246 3.3537509-1.3882c.13112-.5343.30259-1.0636.5144-1.573l-1.88616-3.076.17651-.2746c.31268-.4794.64049-.9288.97839-1.3383l.21181-.2547 3.54035.829c.42363-.3546.87248-.6792 1.35158-.9688l.29755-3.59032.30764-.11985c.53458-.20972 1.06916-.3795 1.58359-.51433l.3177-.0799 2.3703 2.73146c.5548-.03994 1.1146-.03994 1.6744 0l2.3703-2.73146.3177.0799c.5144.12983 1.049.30461 1.5836.51433l.3076.11985.2976 3.59032c.474.2896.9279.6142 1.3516.9688l3.5403-.829.2118.2497c.343.4095.6708.8589.9784 1.3383l.1765.2746-1.8861 3.076c.2118.5144.3883 1.0387.5144 1.573l3.3537 1.3882.0202.3246c.0151.2746.0252.5493.0252.8239 0 .2747-.0101.5543-.0252.8239l-.0202.3246-3.3537 1.3882c-.1312.5343-.3026 1.0587-.5144 1.573l1.8861 3.076-.1765.2746c-.3127.4794-.6405.9288-.9784 1.3383l-.2118.2547-3.5403-.8289c-.4237.3545-.8725.6791-1.3516.9687l-.2976 3.5903-.3076.1199c-.5346.2097-1.0692.3795-1.5836.5143l-.3177.0799-2.3703-2.7314c-.5548.0399-1.1196.0399-1.6744 0l-2.3703 2.7314zm4.4885-3.825 2.2946 2.6415c.2774-.0798.5548-.1697.8423-.2746l.2874-3.4755.2371-.1398c.585-.3346 1.1296-.7291 1.6239-1.1685l.2068-.1848 3.4293.804c.1766-.2247.3531-.4644.5195-.7091l-1.8256-2.9761.1109-.2497c.2723-.6092.4842-1.2484.6203-1.8925l.0555-.2697 3.2478-1.3433c.0051-.1448.0101-.2896.0101-.4394s0-.2946-.0101-.4394l-3.2478-1.3433-.0555-.2696c-.1412-.6442-.348-1.2784-.6203-1.8926l-.1109-.2496 1.8256-2.9762c-.1664-.2447-.3429-.4844-.5195-.7091l-3.4293.804-.2068-.1848c-.4993-.4394-1.044-.8339-1.6239-1.1685l-.2371-.1398-.2874-3.47547c-.2825-.10487-.5649-.19475-.8423-.27465l-2.2946 2.64158-.2774-.02497c-.6657-.06491-1.3465-.06491-2.0122 0l-.2774.02497-2.2947-2.64158c-.2774.0799-.55475.16978-.84221.27465l-.28746 3.47547-.23704.1398c-.58501.3346-1.12968.7291-1.62392 1.1685l-.20677.1848-3.42939-.804c-.17652.2247-.35303.4644-.51946.7091l1.82565 2.9762-.11095.2496c-.27233.6092-.4791 1.2434-.62032 1.8926l-.06051.2696-3.24784 1.3433c-.00505.1448-.01009.2896-.01009.4394s0 .2946.01009.4394l3.24784 1.3433.06051.2697c.14122.6441.34799 1.2833.62032 1.8925l.11095.2497-1.82565 2.9761c.16643.2447.34294.4844.51946.7091l3.42939-.804.20677.1848c.49928.4394 1.04395.8339 1.62392 1.1685l.23704.1398.28746 3.4755c.28242.1049.56481.1948.84221.2746l2.2947-2.6415.2774.0249c.6657.065 1.3465.065 2.0122 0zm-1.281-3.4106c-3.4849 0-6.32421-2.8064-6.32421-6.2619s2.83431-6.2619 6.32421-6.2619 6.3242 2.8064 6.3242 6.2619-2.8343 6.2619-6.3242 6.2619zm0-11.4701c-2.8999 0-5.26513 2.3369-5.26513 5.2132s2.36023 5.2132 5.26513 5.2132 5.2651-2.3369 5.2651-5.2132-2.3602-5.2132-5.2651-5.2132z" fill="#4bb3d6"/></g></svg>

<svg width="33" height="33" viewBox="0 0 33 33" fill="none" xmlns="http://www.w3.org/2000/svg">
<g clip-path="url(#clip0_740_2633)">
<path d="M10.7925 33L10.4748 32.9201C9.95533 32.7853 9.42579 32.6155 8.89121 32.4058L8.58357 32.2859L8.28602 28.6956C7.81196 28.406 7.35807 28.0814 6.93444 27.7268L3.39409 28.5558L3.18228 28.3011C2.83934 27.8916 2.51153 27.4422 2.20389 26.9628L2.02738 26.6882L3.91354 23.6122C3.70173 23.1028 3.52522 22.5735 3.39914 22.0392L0.0453891 20.651L0.0252161 20.3264C0.0100865 20.0518 0 19.7772 0 19.5025C0 19.2279 0.0100865 18.9532 0.0252161 18.6786L0.0453891 18.354L3.39914 16.9658C3.53026 16.4315 3.70173 15.9022 3.91354 15.3928L2.02738 12.3168L2.20389 12.0422C2.51657 11.5628 2.84438 11.1134 3.18228 10.7039L3.39409 10.4492L6.93444 11.2782C7.35807 10.9236 7.80692 10.599 8.28602 10.3094L8.58357 6.71908L8.89121 6.59923C9.42579 6.38951 9.96037 6.21973 10.4748 6.0849L10.7925 6.005L13.1628 8.73646C13.7176 8.69652 14.2774 8.69652 14.8372 8.73646L17.2075 6.005L17.5252 6.0849C18.0396 6.21473 18.5742 6.38951 19.1088 6.59923L19.4164 6.71908L19.714 10.3094C20.188 10.599 20.6419 10.9236 21.0656 11.2782L24.6059 10.4492L24.8177 10.6989C25.1607 11.1084 25.4885 11.5578 25.7961 12.0372L25.9726 12.3118L24.0865 15.3878C24.2983 15.9022 24.4748 16.4265 24.6009 16.9608L27.9546 18.349L27.9748 18.6736C27.9899 18.9482 28 19.2229 28 19.4975C28 19.7722 27.9899 20.0518 27.9748 20.3214L27.9546 20.646L24.6009 22.0342C24.4697 22.5685 24.2983 23.0929 24.0865 23.6072L25.9726 26.6832L25.7961 26.9578C25.4834 27.4372 25.1556 27.8866 24.8177 28.2961L24.6059 28.5508L21.0656 27.7219C20.6419 28.0764 20.1931 28.401 19.714 28.6906L19.4164 32.2809L19.1088 32.4008C18.5742 32.6105 18.0396 32.7803 17.5252 32.9151L17.2075 32.995L14.8372 30.2636C14.2824 30.3035 13.7176 30.3035 13.1628 30.2636L10.7925 32.995V33ZM15.281 29.175L17.5756 31.8165C17.853 31.7367 18.1304 31.6468 18.4179 31.5419L18.7053 28.0664L18.9424 27.9266C19.5274 27.592 20.072 27.1975 20.5663 26.7581L20.7731 26.5733L24.2024 27.3773C24.379 27.1526 24.5555 26.9129 24.7219 26.6682L22.8963 23.6921L23.0072 23.4424C23.2795 22.8332 23.4914 22.194 23.6275 21.5499L23.683 21.2802L26.9308 19.9369C26.9359 19.7921 26.9409 19.6473 26.9409 19.4975C26.9409 19.3477 26.9409 19.2029 26.9308 19.0581L23.683 17.7148L23.6275 17.4452C23.4863 16.801 23.2795 16.1668 23.0072 15.5526L22.8963 15.303L24.7219 12.3268C24.5555 12.0821 24.379 11.8424 24.2024 11.6177L20.7731 12.4217L20.5663 12.2369C20.067 11.7975 19.5223 11.403 18.9424 11.0684L18.7053 10.9286L18.4179 7.45313C18.1354 7.34826 17.853 7.25838 17.5756 7.17848L15.281 9.82006L15.0036 9.79509C14.3379 9.73018 13.6571 9.73018 12.9914 9.79509L12.714 9.82006L10.4193 7.17848C10.1419 7.25838 9.86455 7.34826 9.57709 7.45313L9.28963 10.9286L9.05259 11.0684C8.46758 11.403 7.92291 11.7975 7.42867 12.2369L7.2219 12.4217L3.79251 11.6177C3.61599 11.8424 3.43948 12.0821 3.27305 12.3268L5.0987 15.303L4.98775 15.5526C4.71542 16.1618 4.50865 16.796 4.36743 17.4452L4.30692 17.7148L1.05908 19.0581C1.05403 19.2029 1.04899 19.3477 1.04899 19.4975C1.04899 19.6473 1.04899 19.7921 1.05908 19.9369L4.30692 21.2802L4.36743 21.5499C4.50865 22.194 4.71542 22.8332 4.98775 23.4424L5.0987 23.6921L3.27305 26.6682C3.43948 26.9129 3.61599 27.1526 3.79251 27.3773L7.2219 26.5733L7.42867 26.7581C7.92795 27.1975 8.47262 27.592 9.05259 27.9266L9.28963 28.0664L9.57709 31.5419C9.85951 31.6468 10.1419 31.7367 10.4193 31.8165L12.714 29.175L12.9914 29.1999C13.6571 29.2649 14.3379 29.2649 15.0036 29.1999L15.281 29.175ZM14 25.7644C10.5151 25.7644 7.67579 22.958 7.67579 19.5025C7.67579 16.047 10.5101 13.2406 14 13.2406C17.4899 13.2406 20.3242 16.047 20.3242 19.5025C20.3242 22.958 17.4899 25.7644 14 25.7644ZM14 14.2943C11.1001 14.2943 8.73487 16.6312 8.73487 19.5075C8.73487 22.3838 11.0951 24.7207 14 24.7207C16.9049 24.7207 19.2651 22.3838 19.2651 19.5075C19.2651 16.6312 16.9049 14.2943 14 14.2943Z" fill="#4BB3D6"/>
</g>
<defs>
<clipPath id="clip0_740_2633">
<rect width="33" height="33" fill="white"/>
</clipPath>
</defs>
</svg>
